src/assets/inicio/download-icon.svg

<svg width="26" height="22" viewBox="0 0 26 22" fill="none" xmlns="http://www.w3.org/2000/svg">
<g clip-path="url(#clip0_150_2)">
<path fill-rule="evenodd" clip-rule="evenodd" d="M12.9999 9.95311C16.2148 9.95311 18.822 12.5597 18.822 15.7752C18.822 18.9907 16.2148 21.5967 12.9999 21.5967C9.78442 21.5967 7.17782 18.9907 7.17782 15.7752C7.17782 12.5597 9.78442 9.95311 12.9999 9.95311ZM18.2705 6.33241C18.1115 6.41112 17.9505 6.49745 17.7921 6.58886C17.3163 6.86764 16.8461 7.20889 16.3662 7.60042L15.3419 6.42788C15.6954 6.10034 16.0782 5.80175 16.4845 5.53768C16.808 5.32593 17.1467 5.13753 17.4961 4.97655C17.6357 4.90647 17.7754 4.84097 17.9191 4.78003C17.2442 3.58413 16.2727 2.72745 15.1723 2.19882C12.9857 1.15171 10.2628 1.37921 8.33664 2.87522C7.23012 3.73241 6.3902 5.01464 6.06621 6.71378L5.96465 7.24444L5.43551 7.33788C4.91703 7.42878 4.45442 7.5537 4.04766 7.71214C3.6541 7.86499 3.30321 8.05339 2.99649 8.2753C2.75071 8.45304 2.53895 8.6521 2.35969 8.86741C1.80262 9.53417 1.54465 10.3695 1.55075 11.2166C1.55735 12.0748 1.83664 12.9426 2.35309 13.6556C2.54555 13.9201 2.76746 14.1639 3.02137 14.3751C3.27985 14.5884 3.5693 14.7662 3.89532 14.9002C4.21879 15.0333 4.5768 15.1282 4.97239 15.1836H5.54825C5.5325 15.3786 5.52489 15.5761 5.52489 15.7747C5.52489 16.1022 5.54571 16.4247 5.58684 16.7405H4.947L4.8495 16.7324C4.28481 16.6603 3.77242 16.5267 3.30727 16.3348C2.82688 16.1352 2.40133 15.8793 2.02707 15.5665C1.6716 15.2699 1.36082 14.9337 1.09625 14.5676C0.389378 13.5946 0.00851878 12.4053 -0.00011403 11.2201C-0.00823903 10.0227 0.363988 8.83186 1.16836 7.86651C1.42836 7.5537 1.73457 7.26577 2.08598 7.01186C2.49477 6.71581 2.96196 6.46597 3.4916 6.26132C3.8552 6.11913 4.24418 6.0003 4.655 5.90534C5.12067 4.0564 6.11293 2.63249 7.38856 1.64378C9.77883 -0.208214 13.1324 -0.503761 15.8457 0.799794C17.3285 1.51327 18.6234 2.70003 19.4638 4.36921C19.802 4.3164 20.1407 4.28897 20.4769 4.29304C23.994 4.31944 26.0354 7.31604 25.9994 10.5919C25.9847 11.927 25.6251 13.2559 24.8883 14.2335C24.4084 14.8703 23.7924 15.3908 23.0541 15.8031C22.3436 16.2012 21.5139 16.5039 20.583 16.7197L20.4134 16.74C20.481 16.2134 20.4929 15.6812 20.449 15.1521C21.1442 14.9749 21.7617 14.7423 22.2903 14.4473C22.8469 14.136 23.3019 13.7571 23.6421 13.3026C24.1713 12.5978 24.4318 11.6015 24.4419 10.5792C24.4709 8.18136 23.0967 5.86268 20.4663 5.84643C19.7406 5.83983 18.9855 6.01554 18.2705 6.33241ZM15.4156 15.3999C15.6009 15.4075 15.7324 15.469 15.8081 15.5848C16.0143 15.8935 15.7334 16.1987 15.5379 16.414C14.9839 17.0214 13.6265 18.4823 13.3533 18.8038C13.1466 19.0328 12.8511 19.0328 12.6444 18.8038C12.3621 18.4742 10.9366 16.9467 10.41 16.3556C10.2272 16.1499 10.0013 15.8696 10.1917 15.5848C10.2694 15.469 10.3994 15.4075 10.5847 15.3999H11.709V13.7663C11.709 13.4697 11.9518 13.226 12.2493 13.226H13.7504C14.0475 13.226 14.2913 13.4692 14.2913 13.7663V15.3999H15.4156Z" fill="white"/>
</g>
<defs>
<clipPath id="clip0_150_2">
<rect width="26" height="21.5968" fill="white"/>
</clipPath>
</defs>
</svg>

<svg xmlns="http://www.w3.org/2000/svg" width="26" height="22" fill="none"><g clip-path="url(#a)"><path fill="#fff" fill-rule="evenodd" d="M13 9.953a5.822 5.822 0 1 1 0 11.645 5.822 5.822 0 0 1 0-11.645Zm5.27-3.62a8.56 8.56 0 0 0-.478.256c-.476.279-.946.62-1.426 1.011l-1.024-1.172a8.49 8.49 0 0 1 2.154-1.451c.14-.07.28-.136.423-.197a6.23 6.23 0 0 0-2.747-2.581c-2.186-1.047-4.91-.82-6.835.676-1.107.857-1.947 2.14-2.27 3.839l-.102.53-.53.094c-.518.09-.98.216-1.387.374a4.668 4.668 0 0 0-1.052.563 3.474 3.474 0 0 0-.636.592c-.557.667-.815 1.502-.81 2.35.007.858.287 1.726.803 2.439.193.264.414.508.668.72.259.212.548.39.874.524.324.133.682.228 1.077.284h.576a7.477 7.477 0 0 0 .039 1.557h-.64l-.098-.009a6.023 6.023 0 0 1-1.542-.397c-.48-.2-.906-.456-1.28-.769a5.478 5.478 0 0 1-.93-.998A5.805 5.805 0 0 1 0 11.22c-.008-1.197.364-2.388 1.168-3.353.26-.313.567-.601.918-.855a6.174 6.174 0 0 1 1.406-.75 8.374 8.374 0 0 1 1.163-.357c.466-1.849 1.458-3.273 2.734-4.261C9.779-.208 13.132-.504 15.846.8a7.815 7.815 0 0 1 3.618 3.57c.338-.054.677-.081 1.013-.077 3.517.026 5.558 3.023 5.522 6.299-.014 1.335-.374 2.664-1.11 3.641a5.8 5.8 0 0 1-1.835 1.57c-.71.398-1.54.7-2.471.917l-.17.02a7.56 7.56 0 0 0 .036-1.588c.695-.177 1.313-.41 1.841-.705.557-.311 1.012-.69 1.352-1.144.53-.705.79-1.702.8-2.724.029-2.398-1.345-4.716-3.976-4.733-.725-.006-1.48.17-2.196.486ZM15.416 15.4c.185.008.316.069.392.185.206.308-.075.614-.27.829-.554.607-1.912 2.068-2.185 2.39-.206.229-.502.229-.709 0-.282-.33-1.707-1.857-2.234-2.448-.183-.206-.409-.486-.218-.771.077-.116.207-.178.393-.185h1.124v-1.634c0-.296.243-.54.54-.54h1.501c.297 0 .541.243.541.54V15.4h1.125Z" clip-rule="evenodd"/></g><defs><clipPath id="a"><path fill="#fff" d="M0 0h26v21.597H0z"/></clipPath></defs></svg>
